; G-Code generated by Simplify3D(R) Version 3.0.2
; Dec 24, 2016 at 11:46:37 PM
; Settings Summary
;   processName,Process1
;   applyToModels,bottom
;   profileName,Wanhao Duplicator i3 (modified)
;   profileVersion,2015-09-04 08:00:00
;   baseProfile,
;   printMaterial,PLA
;   printQuality,Medium
;   printExtruders,
;   extruderName,Primary Extruder
;   extruderToolheadNumber,0
;   extruderDiameter,0.4
;   extruderAutoWidth,0
;   extruderWidth,0.4
;   extrusionMultiplier,0.95
;   extruderUseRetract,1
;   extruderRetractionDistance,1
;   extruderExtraRestartDistance,0
;   extruderRetractionZLift,0
;   extruderRetractionSpeed,1800
;   extruderUseCoasting,0
;   extruderCoastingDistance,0.2
;   extruderUseWipe,0
;   extruderWipeDistance,5
;   primaryExtruder,0
;   layerHeight,0.2
;   topSolidLayers,3
;   bottomSolidLayers,3
;   perimeterOutlines,2
;   printPerimetersInsideOut,0
;   startPointOption,2
;   startPointOriginX,0
;   startPointOriginY,0
;   startPointOriginZ,300
;   sequentialIslands,0
;   spiralVaseMode,0
;   firstLayerHeightPercentage,90
;   firstLayerWidthPercentage,100
;   firstLayerUnderspeed,0.5
;   useRaft,0
;   raftExtruder,0
;   raftLayers,3
;   raftOffset,3
;   raftSeparationDistance,0.14
;   raftInfill,85
;   disableRaftBaseLayers,0
;   useSkirt,1
;   skirtExtruder,0
;   skirtLayers,1
;   skirtOutlines,2
;   skirtOffset,4
;   usePrimePillar,0
;   primePillarExtruder,999
;   primePillarWidth,12
;   primePillarLocation,7
;   primePillarSpeedMultiplier,1
;   useOozeShield,0
;   oozeShieldExtruder,999
;   oozeShieldOffset,2
;   oozeShieldOutlines,1
;   oozeShieldSidewallShape,1
;   oozeShieldSidewallAngle,30
;   oozeShieldSpeedMultiplier,1
;   infillExtruder,0
;   internalInfillPattern,Rectilinear
;   externalInfillPattern,Rectilinear
;   infillPercentage,10
;   outlineOverlapPercentage,25
;   infillExtrusionWidthPercentage,125
;   minInfillLength,5
;   infillLayerInterval,1
;   infillAngles,0,90
;   overlapInfillAngles,0
;   generateSupport,0
;   supportExtruder,0
;   supportInfillPercentage,30
;   supportExtraInflation,0
;   denseSupportLayers,0
;   denseSupportInfillPercentage,70
;   supportLayerInterval,1
;   supportHorizontalPartOffset,0.3
;   supportUpperSeparationLayers,1
;   supportLowerSeparationLayers,1
;   supportType,0
;   supportGridSpacing,4
;   maxOverhangAngle,45
;   supportAngles,0
;   temperatureName,Primary Extruder,Heated Bed
;   temperatureNumber,0,0
;   temperatureSetpointCount,1,1
;   temperatureSetpointLayers,1,1
;   temperatureSetpointTemperatures,230,60
;   temperatureStabilizeAtStartup,1,1
;   temperatureHeatedBed,0,1
;   temperatureRelayBetweenLayers,0,0
;   temperatureRelayBetweenLoops,0,0
;   fanLayers,1,2
;   fanSpeeds,0,100
;   blipFanToFullPower,0
;   adjustSpeedForCooling,1
;   minSpeedLayerTime,15
;   minCoolingSpeedSlowdown,20
;   increaseFanForCooling,0
;   minFanLayerTime,45
;   maxCoolingFanSpeed,100
;   increaseFanForBridging,0
;   bridgingFanSpeed,100
;   use5D,1
;   relativeEdistances,0
;   allowEaxisZeroing,1
;   independentExtruderAxes,0
;   includeM10123,0
;   stickySupport,1
;   applyToolheadOffsets,0
;   gcodeXoffset,0
;   gcodeYoffset,0
;   gcodeZoffset,0
;   overrideMachineDefinition,1
;   machineTypeOverride,0
;   strokeXoverride,200
;   strokeYoverride,200
;   strokeZoverride,180
;   originOffsetXoverride,0
;   originOffsetYoverride,0
;   originOffsetZoverride,0
;   homeXdirOverride,-1
;   homeYdirOverride,-1
;   homeZdirOverride,-1
;   flipXoverride,1
;   flipYoverride,-1
;   flipZoverride,1
;   toolheadOffsets,0,0|0,0|0,0|0,0|0,0|0,0
;   overrideFirmwareConfiguration,1
;   firmwareTypeOverride,RepRap (Marlin/Repetier/Sprinter)
;   GPXconfigOverride,r2
;   baudRateOverride,115200
;   overridePrinterModels,1
;   printerModelsOverride
;   startingGcode,G28 ; home all axes
;   layerChangeGcode,
;   retractionGcode,
;   toolChangeGcode,
;   endingGcode,G28 X0 ; home X-axis,M104 S0 ; turn off extruder,M140 S0 ; turn off bed,M84 ; disable motors
;   createX3G,0
;   celebration,0
;   celebrationSong,Random Song
;   createMB5G,0
;   postProcessing,
;   defaultSpeed,3600
;   outlineUnderspeed,0.5
;   solidInfillUnderspeed,0.8
;   supportUnderspeed,0.8
;   rapidXYspeed,4800
;   rapidZspeed,1000
;   minBridgingArea,50
;   bridgingExtraInflation,0
;   bridgingExtrusionMultiplier,1
;   bridgingSpeedMultiplier,1
;   filamentDiameter,1.75
;   filamentPricePerKg,46
;   filamentDensity,1.25
;   useMinPrintHeight,0
;   minPrintHeight,0
;   useMaxPrintHeight,0
;   maxPrintHeight,0
;   useDiaphragm,0
;   diaphragmLayerInterval,20
;   robustSlicing,1
;   mergeAllIntoSolid,0
;   onlyRetractWhenCrossingOutline,1
;   retractBetweenLayers,1
;   useRetractionMinTravel,0
;   retractionMinTravel,3
;   retractWhileWiping,0
;   onlyWipeOutlines,1
;   avoidCrossingOutline,0
;   maxMovementDetourFactor,3
;   toolChangeRetractionDistance,12
;   toolChangeExtraRestartDistance,-0.5
;   toolChangeRetractionSpeed,600
;   allowThinWallGapFill,1
;   thinWallAllowedOverlapPercentage,10
;   horizontalSizeCompensation,0
G90
M82
M106 S0
M140 S60
M190 S60
M104 S230 T0
M109 S230 T0
G28 ; home all axes
G92 E0
G1 E-1.0000 F1800
G1 Z0.180 F1000
; layer 1, Z = 0.18
T0
; tool H0.200 W0.400
; skirt
G1 X43.331 Y22.348 F4800
G1 E0.0000 F540
G92 E0
G1 X45.843 Y19.836 E0.1122 F1800
G1 X46.064 Y19.745 E0.1198
G1 X153.936 Y19.745 E3.5282
G1 X154.157 Y19.836 E3.5358
G1 X156.669 Y22.348 E3.6480
G1 X156.760 Y22.569 E3.6556
G1 X156.760 Y177.431 E8.5488
G1 X156.669 Y177.652 E8.5563
G1 X154.157 Y180.164 E8.6686
G1 X153.936 Y180.255 E8.6761
G1 X46.064 Y180.255 E12.0846
G1 X45.843 Y180.164 E12.0921
G1 X43.331 Y177.652 E12.2044
G1 X43.240 Y177.431 E12.2119
G1 X43.240 Y22.569 E17.1051
G1 X43.331 Y22.348 E17.1126
G1 X43.670 Y22.575 F4800
G92 E0
G1 X46.070 Y20.175 E0.1072 F1800
G1 X46.143 Y20.145 E0.1097
G1 X153.857 Y20.145 E3.5132
G1 X153.930 Y20.175 E3.5157
G1 X156.330 Y22.575 E3.6229
G1 X156.360 Y22.648 E3.6254
G1 X156.360 Y177.352 E8.5136
G1 X156.330 Y177.425 E8.5161
G1 X153.930 Y179.825 E8.6233
G1 X153.857 Y179.855 E8.6258
G1 X46.143 Y179.855 E12.0293
G1 X46.070 Y179.825 E12.0318
G1 X43.670 Y177.425 E12.1390
G1 X43.640 Y177.352 E12.1415
G1 X43.640 Y22.648 E17.0297
G1 X43.670 Y22.575 E17.0322
G92 E0
G1 E-1.0000 F1800
; outer perimeter
G1 X48.040 Y24.545 F4800
G1 E0.0000 F1800
G92 E0
G1 X151.960 Y24.545 E3.2836 F900
G1 X151.960 Y175.455 E8.0519
G1 X48.040 Y175.455 E11.3355
G1 X48.040 Y24.545 E16.1038
; inner perimeter
G1 X48.440 Y24.945 F4800
G92 E0
G1 X151.560 Y24.945 E3.2583 F1350
G1 X151.560 Y175.055 E8.0013
G1 X48.440 Y175.055 E11.2596
G1 X48.440 Y24.945 E16.0027
; solid layer
G1 X48.740 Y25.678 F4800
G92 E0
G1 X49.173 Y25.245 E0.0193 F1440
G1 X49.739 Y25.245 E0.0372
G1 X48.740 Y26.244 E0.0818
G1 X48.740 Y26.809 E0.0997
G1 X50.304 Y25.245 E0.1696
G1 X50.870 Y25.245 E0.1875
G1 X48.740 Y27.375 E0.2827
G1 X48.740 Y27.941 E0.3005
G1 X51.436 Y25.245 E0.4210
G1 X52.001 Y25.245 E0.4389
G1 X48.740 Y28.506 E0.5846
G1 X48.740 Y29.072 E0.6025
G1 X52.567 Y25.245 E0.7735
G1 X53.133 Y25.245 E0.7914
G1 X48.740 Y29.638 E0.9876
G1 X48.740 Y30.203 E1.0055
G1 X53.698 Y25.245 E1.2271
G1 X54.264 Y25.245 E1.2449
G1 X48.740 Y30.769 E1.4918
G1 X48.740 Y31.335 E1.5097
G1 X54.830 Y25.245 E1.7818
G1 X55.395 Y25.245 E1.7997
G1 X48.740 Y31.900 E2.0971
G1 X48.740 Y32.466 E2.1149
G1 X55.961 Y25.245 E2.4376
G1 X56.527 Y25.245 E2.4555
G1 X48.740 Y33.032 E2.8034
G1 X48.740 Y33.597 E2.8213
G1 X57.092 Y25.245 E3.1945
G1 X57.658 Y25.245 E3.2124
G1 X48.740 Y34.163 E3.6109
G1 X48.740 Y34.729 E3.6288
G1 X58.224 Y25.245 E4.0526
G1 X58.790 Y25.245 E4.0705
G1 X48.740 Y35.295 E4.5195
G1 X48.740 Y35.860 E4.5374
G1 X59.355 Y25.245 E5.0117
G1 X59.921 Y25.245 E5.0296
G1 X48.740 Y36.426 E5.5292
G1 X48.740 Y36.992 E5.5471
G1 X60.487 Y25.245 E6.0720
G1 X61.052 Y25.245 E6.0899
G1 X48.740 Y37.557 E6.6400
G1 X48.740 Y38.123 E6.6579
G1 X61.618 Y25.245 E7.2334
G1 X62.184 Y25.245 E7.2512
G1 X48.740 Y38.689 E7.8520
G1 X48.740 Y39.254 E7.8699
G1 X62.749 Y25.245 E8.4959
G1 X63.315 Y25.245 E8.5137
G1 X48.740 Y39.820 E9.1650
G1 X48.740 Y40.386 E9.1829
G1 X63.881 Y25.245 E9.8595
G1 X64.446 Y25.245 E9.8773
G1 X48.740 Y40.951 E10.5792
G1 X48.740 Y41.517 E10.5970
G1 X65.012 Y25.245 E11.3242
G1 X65.578 Y25.245 E11.3420
G1 X48.740 Y42.083 E12.0944
G1 X48.740 Y42.648 E12.1123
G1 X66.143 Y25.245 E12.8900
G1 X66.709 Y25.245 E12.9079
G1 X48.740 Y43.214 E13.7108
G1 X48.740 Y43.780 E13.7287
G1 X67.275 Y25.245 E14.5569
G1 X67.840 Y25.245 E14.5748
G1 X48.740 Y44.345 E15.4283
G1 X48.740 Y44.911 E15.4462
G1 X68.406 Y25.245 E16.3250
G1 X68.972 Y25.245 E16.3428
G1 X48.740 Y45.477 E17.2469
G1 X48.740 Y46.043 E17.2648
G1 X69.538 Y25.245 E18.1941
G1 X70.103 Y25.245 E18.2120
G1 X48.740 Y46.608 E19.1666
G1 X48.740 Y47.174 E19.1845
G1 X70.669 Y25.245 E20.1644
G1 X71.235 Y25.245 E20.1822
G1 X48.740 Y47.740 E21.1874
G1 X48.740 Y48.305 E21.2053
G1 X71.800 Y25.245 E22.2357
G1 X72.366 Y25.245 E22.2536
G1 X48.740 Y48.871 E23.3093
G1 X48.740 Y49.437 E23.3272
G1 X72.932 Y25.245 E24.4082
G1 X73.497 Y25.245 E24.4261
G1 X48.740 Y50.002 E25.5324
G1 X48.740 Y50.568 E25.5503
G1 X74.063 Y25.245 E26.6818
G1 X74.629 Y25.245 E26.6997
G1 X48.740 Y51.134 E27.8565
G1 X48.740 Y51.699 E27.8744
G1 X75.194 Y25.245 E29.0565
G1 X75.760 Y25.245 E29.0744
G1 X48.740 Y52.265 E30.2818
G1 X48.740 Y52.831 E30.2997
G1 X76.326 Y25.245 E31.5323
G1 X76.891 Y25.245 E31.5502
G1 X48.740 Y53.396 E32.8082
G1 X48.740 Y53.962 E32.8260
G1 X77.457 Y25.245 E34.1093
G1 X78.023 Y25.245 E34.1271
G1 X48.740 Y54.528 E35.4356
G1 X48.740 Y55.094 E35.4535
G1 X78.589 Y25.245 E36.7873
G1 X79.154 Y25.245 E36.8052
G1 X48.740 Y55.659 E38.1642
G1 X48.740 Y56.225 E38.1821
G1 X79.720 Y25.245 E39.5664
G1 X80.286 Y25.245 E39.5843
G1 X48.740 Y56.791 E40.9939
G1 X48.740 Y57.356 E41.0118
G1 X80.851 Y25.245 E42.4467
G1 X81.417 Y25.245 E42.4646
G1 X48.740 Y57.922 E43.9248
G1 X48.740 Y58.488 E43.9426
G1 X81.983 Y25.245 E45.4281
G1 X82.548 Y25.245 E45.4459
G1 X48.740 Y59.053 E46.9567
G1 X48.740 Y59.619 E46.9746
G1 X83.114 Y25.245 E48.5106
G1 X83.680 Y25.245 E48.5284
G1 X48.740 Y60.185 E50.0897
G1 X48.740 Y60.750 E50.1076
G1 X84.245 Y25.245 E51.6941
G1 X84.811 Y25.245 E51.7120
G1 X48.740 Y61.316 E53.3239
G1 X48.740 Y61.882 E53.3417
G1 X85.377 Y25.245 E54.9788
G1 X85.942 Y25.245 E54.9967
G1 X48.740 Y62.447 E56.6591
G1 X48.740 Y63.013 E56.6770
G1 X86.508 Y25.245 E58.3647
G1 X87.074 Y25.245 E58.3825
G1 X48.740 Y63.579 E60.0955
G1 X48.740 Y64.144 E60.1134
G1 X87.639 Y25.245 E61.8516
G1 X88.205 Y25.245 E61.8695
G1 X48.740 Y64.710 E63.6330
G1 X48.740 Y65.276 E63.6508
G1 X88.771 Y25.245 E65.4396
G1 X89.337 Y25.245 E65.4575
G1 X48.740 Y65.842 E67.2716
G1 X48.740 Y66.407 E67.2894
G1 X89.902 Y25.245 E69.1288
G1 X90.468 Y25.245 E69.1466
G1 X48.740 Y66.973 E71.0113
G1 X48.740 Y67.539 E71.0291
G1 X91.034 Y25.245 E72.9190
G1 X91.599 Y25.245 E72.9369
G1 X48.740 Y68.104 E74.8521
G1 X48.740 Y68.670 E74.8699
G1 X92.165 Y25.245 E76.8104
G1 X92.731 Y25.245 E76.8283
G1 X48.740 Y69.236 E78.7940
G1 X48.740 Y69.801 E78.8119
G1 X93.296 Y25.245 E80.8029
G1 X93.862 Y25.245 E80.8207
G1 X48.740 Y70.367 E82.8370
G1 X48.740 Y70.933 E82.8549
G1 X94.428 Y25.245 E84.8965
G1 X94.993 Y25.245 E84.9143
G1 X48.740 Y71.498 E86.9812
G1 X48.740 Y72.064 E86.9990
G1 X95.559 Y25.245 E89.0912
G1 X96.125 Y25.245 E89.1090
G1 X48.740 Y72.630 E91.2264
G1 X48.740 Y73.195 E91.2443
G1 X96.690 Y25.245 E93.3870
G1 X97.256 Y25.245 E93.4048
G1 X48.740 Y73.761 E95.5728
G1 X48.740 Y74.327 E95.5907
G1 X97.822 Y25.245 E97.7839
G1 X98.388 Y25.245 E97.8018
G1 X48.740 Y74.892 E100.0203
G1 X48.740 Y75.458 E100.0381
G1 X98.953 Y25.245 E102.2819
G1 X99.519 Y25.245 E102.2998
G1 X48.740 Y76.024 E104.5688
G1 X48.740 Y76.590 E104.5867
G1 X100.085 Y25.245 E106.8811
G1 X100.650 Y25.245 E106.8989
G1 X48.740 Y77.155 E109.2185
G1 X48.740 Y77.721 E109.2364
G1 X101.216 Y25.245 E111.5813
G1 X101.782 Y25.245 E111.5992
G1 X48.740 Y78.287 E113.9694
G1 X48.740 Y78.852 E113.9872
G1 X102.347 Y25.245 E116.3827
G1 X102.913 Y25.245 E116.4006
G1 X48.740 Y79.418 E118.8213
G1 X48.740 Y79.984 E118.8392
G1 X103.479 Y25.245 E121.2852
G1 X104.044 Y25.245 E121.3030
G1 X48.740 Y80.549 E123.7743
G1 X48.740 Y81.115 E123.7922
G1 X104.610 Y25.245 E126.2887
G1 X105.176 Y25.245 E126.3066
G1 X48.740 Y81.681 E128.8284
G1 X48.740 Y82.246 E128.8463
G1 X105.741 Y25.245 E131.3934
G1 X106.307 Y25.245 E131.4113
G1 X48.740 Y82.812 E133.9837
G1 X48.740 Y83.378 E134.0016
G1 X106.873 Y25.245 E136.5992
G1 X107.438 Y25.245 E136.6171
G1 X48.740 Y83.943 E139.2401
G1 X48.740 Y84.509 E139.2579
G1 X108.004 Y25.245 E141.9062
G1 X108.570 Y25.245 E141.9240
G1 X48.740 Y85.075 E144.5975
G1 X48.740 Y85.641 E144.6154
G1 X109.136 Y25.245 E147.3142
G1 X109.701 Y25.245 E147.3321
G1 X48.740 Y86.206 E150.0561
G1 X48.740 Y86.772 E150.0740
G1 X110.267 Y25.245 E152.8233
G1 X110.833 Y25.245 E152.8412
G1 X48.740 Y87.338 E155.6158
G1 X48.740 Y87.903 E155.6337
G1 X111.398 Y25.245 E158.4336
G1 X111.964 Y25.245 E158.4515
G1 X48.740 Y88.469 E161.2766
G1 X48.740 Y89.035 E161.2945
G1 X112.530 Y25.245 E164.1449
G1 X113.095 Y25.245 E164.1628
G1 X48.740 Y89.600 E167.0385
G1 X48.740 Y90.166 E167.0564
G1 X113.661 Y25.245 E169.9574
G1 X114.227 Y25.245 E169.9753
G1 X48.740 Y90.732 E172.9016
G1 X48.740 Y91.297 E172.9194
G1 X114.792 Y25.245 E175.8710
G1 X115.358 Y25.245 E175.8889
G1 X48.740 Y91.863 E178.8657
G1 X48.740 Y92.429 E178.8836
G1 X115.924 Y25.245 E181.8857
G1 X116.489 Y25.245 E181.9036
G1 X48.740 Y92.994 E184.9310
G1 X48.740 Y93.560 E184.9488
G1 X117.055 Y25.245 E188.0015
G1 X117.621 Y25.245 E188.0194
G1 X48.740 Y94.126 E191.0973
G1 X48.740 Y94.691 E191.1152
G1 X118.186 Y25.245 E194.2184
G1 X118.752 Y25.245 E194.2363
G1 X48.740 Y95.257 E197.3648
G1 X48.740 Y95.823 E197.3827
G1 X119.318 Y25.245 E200.5364
G1 X119.884 Y25.245 E200.5543
G1 X48.740 Y96.389 E203.7334
G1 X48.740 Y96.954 E203.7512
G1 X120.449 Y25.245 E206.9556
G1 X121.015 Y25.245 E206.9735
G1 X48.740 Y97.520 E210.2031
G1 X48.740 Y98.086 E210.2209
G1 X121.581 Y25.245 E213.4758
G1 X122.146 Y25.245 E213.4937
G1 X48.740 Y98.651 E216.7739
G1 X48.740 Y99.217 E216.7917
G1 X122.712 Y25.245 E220.0972
G1 X123.278 Y25.245 E220.1151
G1 X48.740 Y99.783 E223.4458
G1 X48.740 Y100.348 E223.4637
G1 X123.843 Y25.245 E226.8197
G1 X124.409 Y25.245 E226.8375
G1 X48.740 Y100.914 E230.2188
G1 X48.740 Y101.480 E230.2367
G1 X124.975 Y25.245 E233.6432
G1 X125.540 Y25.245 E233.6611
G1 X48.740 Y102.045 E237.0929
G1 X48.740 Y102.611 E237.1108
G1 X126.106 Y25.245 E240.5679
G1 X126.672 Y25.245 E240.5858
G1 X48.740 Y103.177 E244.0682
G1 X48.740 Y103.742 E244.0861
G1 X127.237 Y25.245 E247.5937
G1 X127.803 Y25.245 E247.6116
G1 X48.740 Y104.308 E251.1445
G1 X48.740 Y104.874 E251.1624
G1 X128.369 Y25.245 E254.7206
G1 X128.935 Y25.245 E254.7385
G1 X48.740 Y105.440 E258.3220
G1 X48.740 Y106.005 E258.3399
G1 X129.500 Y25.245 E261.9487
G1 X130.066 Y25.245 E261.9665
G1 X48.740 Y106.571 E265.6006
G1 X48.740 Y107.137 E265.6185
G1 X130.632 Y25.245 E269.2778
G1 X131.197 Y25.245 E269.2957
G1 X48.740 Y107.702 E272.9803
G1 X48.740 Y108.268 E272.9982
G1 X131.763 Y25.245 E276.7080
G1 X132.329 Y25.245 E276.7259
G1 X48.740 Y108.834 E280.4611
G1 X48.740 Y109.399 E280.4790
G1 X132.894 Y25.245 E284.2394
G1 X133.460 Y25.245 E284.2573
G1 X48.740 Y109.965 E288.0430
G1 X48.740 Y110.531 E288.0609
G1 X134.026 Y25.245 E291.8719
G1 X134.591 Y25.245 E291.8897
G1 X48.740 Y111.096 E295.7260
G1 X48.740 Y111.662 E295.7439
G1 X135.157 Y25.245 E299.6054
G1 X135.723 Y25.245 E299.6233
G1 X48.740 Y112.228 E303.5102
G1 X48.740 Y112.793 E303.5280
G1 X136.288 Y25.245 E307.4401
G1 X136.854 Y25.245 E307.4580
G1 X48.740 Y113.359 E311.3954
G1 X48.740 Y113.925 E311.4133
G1 X137.420 Y25.245 E315.3759
G1 X137.985 Y25.245 E315.3938
G1 X48.740 Y114.490 E319.3817
G1 X48.740 Y115.056 E319.3996
G1 X138.551 Y25.245 E323.4128
G1 X139.117 Y25.245 E323.4307
G1 X48.740 Y115.622 E327.4692
G1 X48.740 Y116.188 E327.4871
G1 X139.683 Y25.245 E331.5509
G1 X140.248 Y25.245 E331.5687
G1 X48.740 Y116.753 E335.6578
G1 X48.740 Y117.319 E335.6757
G1 X140.814 Y25.245 E339.7900
G1 X141.380 Y25.245 E339.8079
