; G-Code generated by Simplify3D(R) Version 3.0.2
; Dec 24, 2016 at 11:55:41 PM
; Settings Summary
;   processName,Process1
;   applyToModels,testled,testpot,testpotcap,testswitch
;   profileName,Wanhao Duplicator i3 (modified)
;   profileVersion,2015-09-04 08:00:00
;   baseProfile,
;   printMaterial,PLA
;   printQuality,Medium
;   printExtruders,
;   extruderName,Primary Extruder
;   extruderToolheadNumber,0
;   extruderDiameter,0.4
;   extruderAutoWidth,0
;   extruderWidth,0.4
;   extrusionMultiplier,0.95
;   extruderUseRetract,1
;   extruderRetractionDistance,1
;   extruderExtraRestartDistance,0
;   extruderRetractionZLift,0
;   extruderRetractionSpeed,1800
;   extruderUseCoasting,0
;   extruderCoastingDistance,0.2
;   extruderUseWipe,0
;   extruderWipeDistance,5
;   primaryExtruder,0
;   layerHeight,0.2
;   topSolidLayers,3
;   bottomSolidLayers,3
;   perimeterOutlines,2
;   printPerimetersInsideOut,0
;   startPointOption,2
;   startPointOriginX,0
;   startPointOriginY,0
;   startPointOriginZ,300
;   sequentialIslands,0
;   spiralVaseMode,0
;   firstLayerHeightPercentage,90
;   firstLayerWidthPercentage,100
;   firstLayerUnderspeed,0.5
;   useRaft,0
;   raftExtruder,0
;   raftLayers,3
;   raftOffset,3
;   raftSeparationDistance,0.14
;   raftInfill,85
;   disableRaftBaseLayers,0
;   useSkirt,1
;   skirtExtruder,0
;   skirtLayers,1
;   skirtOutlines,2
;   skirtOffset,4
;   usePrimePillar,0
;   primePillarExtruder,999
;   primePillarWidth,12
;   primePillarLocation,7
;   primePillarSpeedMultiplier,1
;   useOozeShield,0
;   oozeShieldExtruder,999
;   oozeShieldOffset,2
;   oozeShieldOutlines,1
;   oozeShieldSidewallShape,1
;   oozeShieldSidewallAngle,30
;   oozeShieldSpeedMultiplier,1
;   infillExtruder,0
;   internalInfillPattern,Rectilinear
;   externalInfillPattern,Rectilinear
;   infillPercentage,15
;   outlineOverlapPercentage,25
;   infillExtrusionWidthPercentage,125
;   minInfillLength,5
;   infillLayerInterval,1
;   infillAngles,45,-45
;   overlapInfillAngles,0
;   generateSupport,0
;   supportExtruder,0
;   supportInfillPercentage,30
;   supportExtraInflation,0
;   denseSupportLayers,0
;   denseSupportInfillPercentage,70
;   supportLayerInterval,1
;   supportHorizontalPartOffset,0.3
;   supportUpperSeparationLayers,1
;   supportLowerSeparationLayers,1
;   supportType,0
;   supportGridSpacing,4
;   maxOverhangAngle,45
;   supportAngles,0
;   temperatureName,Primary Extruder,Heated Bed
;   temperatureNumber,0,0
;   temperatureSetpointCount,1,1
;   temperatureSetpointLayers,1,1
;   temperatureSetpointTemperatures,230,60
;   temperatureStabilizeAtStartup,1,1
;   temperatureHeatedBed,0,1
;   temperatureRelayBetweenLayers,0,0
;   temperatureRelayBetweenLoops,0,0
;   fanLayers,1,2
;   fanSpeeds,0,100
;   blipFanToFullPower,0
;   adjustSpeedForCooling,1
;   minSpeedLayerTime,15
;   minCoolingSpeedSlowdown,20
;   increaseFanForCooling,0
;   minFanLayerTime,45
;   maxCoolingFanSpeed,100
;   increaseFanForBridging,0
;   bridgingFanSpeed,100
;   use5D,1
;   relativeEdistances,0
;   allowEaxisZeroing,1
;   independentExtruderAxes,0
;   includeM10123,0
;   stickySupport,1
;   applyToolheadOffsets,0
;   gcodeXoffset,0
;   gcodeYoffset,0
;   gcodeZoffset,0
;   overrideMachineDefinition,1
;   machineTypeOverride,0
;   strokeXoverride,200
;   strokeYoverride,200
;   strokeZoverride,180
;   originOffsetXoverride,0
;   originOffsetYoverride,0
;   originOffsetZoverride,0
;   homeXdirOverride,-1
;   homeYdirOverride,-1
;   homeZdirOverride,-1
;   flipXoverride,1
;   flipYoverride,-1
;   flipZoverride,1
;   toolheadOffsets,0,0|0,0|0,0|0,0|0,0|0,0
;   overrideFirmwareConfiguration,1
;   firmwareTypeOverride,RepRap (Marlin/Repetier/Sprinter)
;   GPXconfigOverride,r2
;   baudRateOverride,115200
;   overridePrinterModels,1
;   printerModelsOverride
;   startingGcode,G28 ; home all axes
;   layerChangeGcode,
;   retractionGcode,
;   toolChangeGcode,
;   endingGcode,G28 X0 ; home X-axis,M104 S0 ; turn off extruder,M140 S0 ; turn off bed,M84 ; disable motors
;   createX3G,0
;   celebration,0
;   celebrationSong,Random Song
;   createMB5G,0
;   postProcessing,
;   defaultSpeed,3600
;   outlineUnderspeed,0.5
;   solidInfillUnderspeed,0.8
;   supportUnderspeed,0.8
;   rapidXYspeed,4800
;   rapidZspeed,1000
;   minBridgingArea,50
;   bridgingExtraInflation,0
;   bridgingExtrusionMultiplier,1
;   bridgingSpeedMultiplier,1
;   filamentDiameter,1.75
;   filamentPricePerKg,46
;   filamentDensity,1.25
;   useMinPrintHeight,0
;   minPrintHeight,0
;   useMaxPrintHeight,0
;   maxPrintHeight,0
;   useDiaphragm,0
;   diaphragmLayerInterval,20
;   robustSlicing,1
;   mergeAllIntoSolid,0
;   onlyRetractWhenCrossingOutline,1
;   retractBetweenLayers,1
;   useRetractionMinTravel,0
;   retractionMinTravel,3
;   retractWhileWiping,0
;   onlyWipeOutlines,1
;   avoidCrossingOutline,0
;   maxMovementDetourFactor,3
;   toolChangeRetractionDistance,12
;   toolChangeExtraRestartDistance,-0.5
;   toolChangeRetractionSpeed,600
;   allowThinWallGapFill,1
;   thinWallAllowedOverlapPercentage,10
;   horizontalSizeCompensation,0
G90
M82
M106 S0
M140 S60
M190 S60
M104 S230 T0
M109 S230 T0
G28 ; home all axes
G92 E0
G1 E-1.0000 F1800
G1 Z0.180 F1000
; layer 1, Z = 0.18
T0
; tool H0.200 W0.400
; skirt
G1 X81.471 Y69.291 F4800
G1 E0.0000 F540
G92 E0
G1 X83.983 Y66.780 E0.1122 F1800
G1 X84.204 Y66.688 E0.1198
G1 X110.796 Y66.688 E0.9600
G1 X111.017 Y66.780 E0.9676
G1 X113.529 Y69.291 E1.0798
G1 X113.620 Y69.512 E1.0874
G1 X113.620 Y96.104 E1.9276
G1 X113.529 Y96.325 E1.9351
G1 X112.765 Y97.088 E1.9693
G1 X115.796 Y97.088 E2.0650
G1 X116.017 Y97.180 E2.0726
G1 X118.529 Y99.691 E2.1848
G1 X118.620 Y99.912 E2.1923
G1 X118.620 Y113.804 E2.6313
G1 X118.529 Y114.025 E2.6389
G1 X116.017 Y116.537 E2.7511
G1 X115.796 Y116.628 E2.7586
G1 X101.904 Y116.628 E3.1976
G1 X101.683 Y116.537 E3.2051
G1 X100.000 Y114.854 E3.2804
G1 X98.317 Y116.537 E3.3556
G1 X98.096 Y116.628 E3.3631
G1 X97.369 Y116.628 E3.3861
G1 X97.784 Y117.018 E3.4041
G1 X97.794 Y117.028 E3.4045
G1 X97.935 Y117.173 E3.4109
G1 X97.945 Y117.184 E3.4114
G1 X98.360 Y117.654 E3.4312
G1 X98.369 Y117.664 E3.4316
G1 X98.493 Y117.819 E3.4379
G1 X98.501 Y117.830 E3.4383
G1 X98.973 Y118.477 E3.4636
G1 X98.983 Y118.490 E3.4641
G1 X99.109 Y118.685 E3.4715
G1 X99.118 Y118.699 E3.4720
G1 X99.526 Y119.408 E3.4978
G1 X99.534 Y119.422 E3.4984
G1 X99.639 Y119.630 E3.5057
G1 X99.645 Y119.645 E3.5062
G1 X99.967 Y120.376 E3.5315
G1 X99.972 Y120.388 E3.5319
G1 X100.042 Y120.569 E3.5380
G1 X100.047 Y120.581 E3.5384
G1 X100.233 Y121.135 E3.5569
G1 X100.237 Y121.148 E3.5573
G1 X100.290 Y121.334 E3.5634
G1 X100.294 Y121.347 E3.5639
G1 X100.479 Y122.124 E3.5891
G1 X100.482 Y122.140 E3.5896
G1 X100.524 Y122.369 E3.5969
G1 X100.526 Y122.385 E3.5975
G1 X100.629 Y123.196 E3.6233
G1 X100.631 Y123.213 E3.6238
G1 X100.647 Y123.444 E3.6312
G1 X100.648 Y123.461 E3.6317
G1 X100.663 Y124.264 E3.6571
G1 X100.663 Y124.278 E3.6575
G1 X100.657 Y124.480 E3.6639
G1 X100.656 Y124.495 E3.6644
G1 X100.608 Y125.120 E3.6842
G1 X100.607 Y125.133 E3.6846
G1 X100.583 Y125.330 E3.6909
G1 X100.581 Y125.344 E3.6913
G1 X100.446 Y126.134 E3.7166
G1 X100.443 Y126.150 E3.7171
G1 X100.392 Y126.376 E3.7245
G1 X100.388 Y126.392 E3.7250
G1 X100.164 Y127.179 E3.7508
G1 X100.160 Y127.195 E3.7514
G1 X100.084 Y127.414 E3.7587
G1 X100.078 Y127.430 E3.7592
G1 X99.772 Y128.188 E3.7851
G1 X99.765 Y128.203 E3.7856
G1 X99.666 Y128.413 E3.7929
G1 X99.659 Y128.428 E3.7934
G1 X99.281 Y129.131 E3.8187
G1 X99.275 Y129.143 E3.8191
G1 X99.175 Y129.310 E3.8252
G1 X99.168 Y129.321 E3.8256
G1 X98.857 Y129.793 E3.8435
G1 X98.851 Y129.802 E3.8438
G1 X98.761 Y129.928 E3.8487
G1 X98.755 Y129.936 E3.8491
G1 X98.411 Y130.384 E3.8669
G1 X98.402 Y130.395 E3.8673
G1 X98.278 Y130.543 E3.8735
G1 X98.269 Y130.553 E3.8739
G1 X97.737 Y131.130 E3.8987
G1 X97.728 Y131.140 E3.8991
G1 X97.583 Y131.282 E3.9055
G1 X97.573 Y131.292 E3.9060
G1 X97.106 Y131.711 E3.9258
G1 X97.096 Y131.720 E3.9262
G1 X96.942 Y131.845 E3.9325
G1 X96.931 Y131.854 E3.9329
G1 X96.289 Y132.332 E3.9582
G1 X96.275 Y132.341 E3.9587
G1 X96.082 Y132.470 E3.9661
G1 X96.068 Y132.478 E3.9666
G1 X95.363 Y132.893 E3.9924
G1 X95.349 Y132.900 E3.9929
G1 X95.142 Y133.007 E4.0003
G1 X95.128 Y133.014 E4.0008
G1 X94.382 Y133.350 E4.0266
G1 X94.367 Y133.357 E4.0272
G1 X94.150 Y133.440 E4.0345
G1 X94.135 Y133.446 E4.0350
G1 X93.375 Y133.694 E4.0603
G1 X93.362 Y133.697 E4.0607
G1 X93.176 Y133.749 E4.0668
G1 X93.162 Y133.752 E4.0672
G1 X92.593 Y133.883 E4.0857
G1 X92.580 Y133.886 E4.0861
G1 X92.389 Y133.920 E4.0922
G1 X92.376 Y133.922 E4.0927
G1 X91.585 Y134.030 E4.1179
G1 X91.568 Y134.032 E4.1184
G1 X91.337 Y134.051 E4.1258
G1 X91.320 Y134.051 E4.1263
G1 X90.518 Y134.073 E4.1516
G1 X90.503 Y134.073 E4.1521
G1 X90.301 Y134.069 E4.1585
G1 X90.287 Y134.068 E4.1589
G1 X89.661 Y134.026 E4.1788
G1 X89.647 Y134.025 E4.1792
G1 X89.450 Y134.003 E4.1855
G1 X89.437 Y134.001 E4.1859
G1 X88.665 Y133.877 E4.2106
G1 X88.652 Y133.874 E4.2110
G1 X88.462 Y133.835 E4.2171
G1 X88.448 Y133.832 E4.2176
G1 X87.882 Y133.687 E4.2360
G1 X87.869 Y133.684 E4.2365
G1 X87.684 Y133.628 E4.2426
G1 X87.671 Y133.623 E4.2430
G1 X86.918 Y133.357 E4.2682
G1 X86.903 Y133.352 E4.2687
G1 X86.689 Y133.262 E4.2761
G1 X86.674 Y133.256 E4.2766
G1 X85.936 Y132.902 E4.3025
G1 X85.922 Y132.894 E4.3030
G1 X85.718 Y132.782 E4.3103
G1 X85.704 Y132.774 E4.3108
G1 X85.009 Y132.343 E4.3367
G1 X84.996 Y132.334 E4.3372
G1 X84.805 Y132.201 E4.3445
G1 X84.792 Y132.191 E4.3450
G1 X84.163 Y131.699 E4.3703
G1 X84.152 Y131.690 E4.3707
G1 X84.005 Y131.564 E4.3768
G1 X83.995 Y131.555 E4.3773
G1 X83.580 Y131.165 E4.3952
G1 X83.572 Y131.157 E4.3956
G1 X83.457 Y131.041 E4.4008
G1 X83.449 Y131.032 E4.4012
G1 X83.039 Y130.584 E4.4204
G1 X83.030 Y130.574 E4.4208
G1 X82.903 Y130.421 E4.4271
G1 X82.894 Y130.410 E4.4275
G1 X82.411 Y129.772 E4.4528
G1 X82.401 Y129.759 E4.4533
G1 X82.271 Y129.566 E4.4607
G1 X82.262 Y129.553 E4.4612
G1 X81.841 Y128.851 E4.4870
G1 X81.833 Y128.837 E4.4875
G1 X81.725 Y128.631 E4.4949
G1 X81.718 Y128.617 E4.4954
G1 X81.383 Y127.892 E4.5206
G1 X81.378 Y127.879 E4.5211
G1 X81.304 Y127.700 E4.5272
G1 X81.300 Y127.687 E4.5276
G1 X81.104 Y127.137 E4.5461
G1 X81.099 Y127.124 E4.5465
G1 X81.043 Y126.939 E4.5526
G1 X81.039 Y126.926 E4.5530
G1 X80.840 Y126.152 E4.5783
G1 X80.836 Y126.137 E4.5788
G1 X80.790 Y125.909 E4.5861
G1 X80.788 Y125.893 E4.5866
G1 X80.670 Y125.083 E4.6125
G1 X80.668 Y125.067 E4.6130
G1 X80.647 Y124.836 E4.6203
G1 X80.646 Y124.820 E4.6209
G1 X80.617 Y124.017 E4.6462
G1 X80.617 Y124.003 E4.6467
G1 X80.619 Y123.800 E4.6531
G1 X80.620 Y123.786 E4.6535
G1 X80.656 Y123.160 E4.6733
G1 X80.658 Y123.146 E4.6738
G1 X80.678 Y122.949 E4.6800
G1 X80.680 Y122.935 E4.6805
G1 X80.800 Y122.143 E4.7058
G1 X80.803 Y122.127 E4.7063
G1 X80.850 Y121.900 E4.7137
G1 X80.854 Y121.884 E4.7142
G1 X81.058 Y121.112 E4.7394
G1 X81.062 Y121.099 E4.7398
G1 X81.120 Y120.914 E4.7459
G1 X81.124 Y120.901 E4.7464
G1 X81.324 Y120.352 E4.7648
G1 X81.328 Y120.339 E4.7653
G1 X81.403 Y120.160 E4.7714
G1 X81.408 Y120.148 E4.7718
G1 X81.747 Y119.425 E4.7970
G1 X81.755 Y119.411 E4.7976
G1 X81.865 Y119.206 E4.8049
G1 X81.873 Y119.192 E4.8054
G1 X82.288 Y118.509 E4.8307
G1 X82.295 Y118.498 E4.8311
G1 X82.403 Y118.337 E4.8372
G1 X82.411 Y118.326 E4.8376
G1 X82.759 Y117.856 E4.8561
G1 X82.767 Y117.846 E4.8565
G1 X82.889 Y117.695 E4.8626
G1 X82.898 Y117.685 E4.8631
G1 X83.415 Y117.103 E4.8877
G1 X83.425 Y117.093 E4.8881
G1 X83.560 Y116.954 E4.8942
G1 X83.569 Y116.945 E4.8947
G1 X83.997 Y116.543 E4.9132
G1 X83.983 Y116.537 E4.9137
G1 X81.471 Y114.025 E5.0259
G1 X81.380 Y113.804 E5.0335
G1 X81.380 Y99.912 E5.4724
G1 X81.471 Y99.691 E5.4800
G1 X83.155 Y98.008 E5.5552
G1 X81.471 Y96.325 E5.6304
G1 X81.380 Y96.104 E5.6380
G1 X81.380 Y69.512 E6.4782
G1 X81.471 Y69.291 E6.4857
G1 X81.780 Y69.592 F4800
G92 E0
G1 X81.810 Y69.518 E0.0025 F1800
G1 X84.210 Y67.119 E0.1097
G1 X84.283 Y67.088 E0.1122
G1 X110.717 Y67.088 E0.9475
G1 X110.790 Y67.119 E0.9500
G1 X113.190 Y69.518 E1.0572
G1 X113.220 Y69.592 E1.0597
G1 X113.220 Y96.025 E1.8949
G1 X113.190 Y96.098 E1.8974
G1 X111.800 Y97.488 E1.9595
G1 X115.717 Y97.488 E2.0833
G1 X115.790 Y97.519 E2.0858
G1 X118.190 Y99.918 E2.1930
G1 X118.220 Y99.992 E2.1956
G1 X118.220 Y113.725 E2.6295
G1 X118.190 Y113.798 E2.6320
G1 X115.790 Y116.198 E2.7392
G1 X115.717 Y116.228 E2.7417
G1 X101.983 Y116.228 E3.1757
G1 X101.910 Y116.198 E3.1782
G1 X100.000 Y114.288 E3.2635
G1 X98.090 Y116.198 E3.3489
G1 X98.017 Y116.228 E3.3514
G1 X96.240 Y116.228 E3.4075
G1 X96.751 Y116.614 E3.4277
G1 X96.755 Y116.617 E3.4279
G1 X96.925 Y116.760 E3.4349
G1 X96.929 Y116.763 E3.4351
G1 X97.507 Y117.306 E3.4602
G1 X97.510 Y117.309 E3.4603
G1 X97.645 Y117.448 E3.4664
G1 X97.648 Y117.452 E3.4666
G1 X98.057 Y117.915 E3.4861
G1 X98.060 Y117.918 E3.4862
G1 X98.178 Y118.066 E3.4922
G1 X98.181 Y118.070 E3.4923
G1 X98.647 Y118.709 E3.5173
G1 X98.650 Y118.713 E3.5175
G1 X98.771 Y118.899 E3.5245
G1 X98.774 Y118.903 E3.5247
G1 X99.177 Y119.603 E3.5502
G1 X99.179 Y119.608 E3.5504
G1 X99.279 Y119.806 E3.5574
G1 X99.281 Y119.810 E3.5575
G1 X99.599 Y120.533 E3.5825
G1 X99.601 Y120.537 E3.5826
G1 X99.667 Y120.709 E3.5884
G1 X99.669 Y120.713 E3.5886
G1 X99.852 Y121.258 E3.6068
G1 X99.853 Y121.263 E3.6069
G1 X99.904 Y121.440 E3.6127
G1 X99.905 Y121.445 E3.6129
G1 X100.088 Y122.212 E3.6378
G1 X100.090 Y122.217 E3.6380
G1 X100.129 Y122.435 E3.6450
G1 X100.130 Y122.441 E3.6451
G1 X100.232 Y123.241 E3.6706
G1 X100.232 Y123.247 E3.6708
G1 X100.248 Y123.468 E3.6778
G1 X100.248 Y123.473 E3.6780
G1 X100.263 Y124.266 E3.7031
G1 X100.263 Y124.271 E3.7032
G1 X100.257 Y124.464 E3.7093
G1 X100.257 Y124.469 E3.7095
G1 X100.210 Y125.085 E3.7290
G1 X100.209 Y125.089 E3.7291
G1 X100.186 Y125.277 E3.7351
G1 X100.186 Y125.282 E3.7352
G1 X100.053 Y126.061 E3.7602
G1 X100.052 Y126.067 E3.7604
G1 X100.003 Y126.283 E3.7674
G1 X100.002 Y126.288 E3.7676
G1 X99.781 Y127.065 E3.7931
G1 X99.780 Y127.070 E3.7933
G1 X99.708 Y127.280 E3.8003
G1 X99.706 Y127.285 E3.8004
G1 X99.403 Y128.033 E3.8259
G1 X99.401 Y128.038 E3.8261
G1 X99.306 Y128.238 E3.8331
G1 X99.304 Y128.243 E3.8333
G1 X98.931 Y128.938 E3.8582
G1 X98.929 Y128.942 E3.8583
G1 X98.834 Y129.101 E3.8642
G1 X98.832 Y129.105 E3.8643
G1 X98.525 Y129.569 E3.8819
G1 X98.523 Y129.572 E3.8820
G1 X98.438 Y129.693 E3.8867
G1 X98.436 Y129.696 E3.8868
G1 X98.096 Y130.137 E3.9044
G1 X98.094 Y130.141 E3.9045
G1 X97.975 Y130.282 E3.9104
G1 X97.972 Y130.285 E3.9105
G1 X97.447 Y130.855 E3.9350
G1 X97.443 Y130.858 E3.9352
G1 X97.306 Y130.994 E3.9413
G1 X97.302 Y130.997 E3.9414
G1 X96.843 Y131.410 E3.9609
G1 X96.839 Y131.413 E3.9611
G1 X96.693 Y131.533 E3.9670
G1 X96.689 Y131.536 E3.9672
G1 X96.054 Y132.008 E3.9922
G1 X96.050 Y132.011 E3.9924
G1 X95.865 Y132.133 E3.9994
G1 X95.861 Y132.136 E3.9995
G1 X95.165 Y132.545 E4.0250
G1 X95.160 Y132.548 E4.0252
G1 X94.963 Y132.649 E4.0322
G1 X94.958 Y132.652 E4.0324
G1 X94.222 Y132.983 E4.0579
G1 X94.217 Y132.985 E4.0581
G1 X94.011 Y133.065 E4.0651
G1 X94.006 Y133.067 E4.0652
G1 X93.256 Y133.312 E4.0902
G1 X93.251 Y133.313 E4.0903
G1 X93.073 Y133.362 E4.0961
G1 X93.069 Y133.364 E4.0963
G1 X92.508 Y133.492 E4.1145
G1 X92.504 Y133.493 E4.1146
G1 X92.322 Y133.526 E4.1204
G1 X92.318 Y133.527 E4.1206
G1 X91.536 Y133.633 E4.1455
G1 X91.531 Y133.633 E4.1457
G1 X91.310 Y133.651 E4.1527
G1 X91.304 Y133.652 E4.1528
G1 X90.511 Y133.673 E4.1779
G1 X90.507 Y133.673 E4.1780
G1 X90.314 Y133.669 E4.1842
G1 X90.309 Y133.669 E4.1843
G1 X89.693 Y133.628 E4.2038
G1 X89.688 Y133.627 E4.2040
G1 X89.500 Y133.606 E4.2099
G1 X89.496 Y133.605 E4.2101
G1 X88.733 Y133.482 E4.2345
G1 X88.728 Y133.482 E4.2346
G1 X88.547 Y133.444 E4.2405
G1 X88.543 Y133.443 E4.2406
G1 X87.986 Y133.301 E4.2588
G1 X87.981 Y133.300 E4.2589
G1 X87.805 Y133.246 E4.2648
G1 X87.800 Y133.245 E4.2649
G1 X87.057 Y132.982 E4.2898
G1 X87.052 Y132.980 E4.2900
G1 X86.847 Y132.895 E4.2970
G1 X86.842 Y132.893 E4.2972
G1 X86.114 Y132.543 E4.3227
G1 X86.109 Y132.541 E4.3229
G1 X85.915 Y132.434 E4.3299
G1 X85.910 Y132.432 E4.3300
