; G-Code generated by Simplify3D(R) Version 3.0.2
; Dec 24, 2016 at 11:48:43 PM
; Settings Summary
;   processName,Process1
;   applyToModels,top
;   profileName,Wanhao Duplicator i3 (modified)
;   profileVersion,2015-09-04 08:00:00
;   baseProfile,
;   printMaterial,PLA
;   printQuality,Medium
;   printExtruders,
;   extruderName,Primary Extruder
;   extruderToolheadNumber,0
;   extruderDiameter,0.4
;   extruderAutoWidth,0
;   extruderWidth,0.4
;   extrusionMultiplier,0.95
;   extruderUseRetract,1
;   extruderRetractionDistance,1
;   extruderExtraRestartDistance,0
;   extruderRetractionZLift,0
;   extruderRetractionSpeed,1800
;   extruderUseCoasting,0
;   extruderCoastingDistance,0.2
;   extruderUseWipe,0
;   extruderWipeDistance,5
;   primaryExtruder,0
;   layerHeight,0.2
;   topSolidLayers,3
;   bottomSolidLayers,3
;   perimeterOutlines,2
;   printPerimetersInsideOut,0
;   startPointOption,2
;   startPointOriginX,0
;   startPointOriginY,0
;   startPointOriginZ,300
;   sequentialIslands,0
;   spiralVaseMode,0
;   firstLayerHeightPercentage,90
;   firstLayerWidthPercentage,100
;   firstLayerUnderspeed,0.5
;   useRaft,0
;   raftExtruder,0
;   raftLayers,3
;   raftOffset,3
;   raftSeparationDistance,0.14
;   raftInfill,85
;   disableRaftBaseLayers,0
;   useSkirt,1
;   skirtExtruder,0
;   skirtLayers,1
;   skirtOutlines,2
;   skirtOffset,4
;   usePrimePillar,0
;   primePillarExtruder,999
;   primePillarWidth,12
;   primePillarLocation,7
;   primePillarSpeedMultiplier,1
;   useOozeShield,0
;   oozeShieldExtruder,999
;   oozeShieldOffset,2
;   oozeShieldOutlines,1
;   oozeShieldSidewallShape,1
;   oozeShieldSidewallAngle,30
;   oozeShieldSpeedMultiplier,1
;   infillExtruder,0
;   internalInfillPattern,Rectilinear
;   externalInfillPattern,Rectilinear
;   infillPercentage,10
;   outlineOverlapPercentage,25
;   infillExtrusionWidthPercentage,125
;   minInfillLength,5
;   infillLayerInterval,1
;   infillAngles,45,-45
;   overlapInfillAngles,0
;   generateSupport,0
;   supportExtruder,0
;   supportInfillPercentage,30
;   supportExtraInflation,0
;   denseSupportLayers,0
;   denseSupportInfillPercentage,70
;   supportLayerInterval,1
;   supportHorizontalPartOffset,0.3
;   supportUpperSeparationLayers,1
;   supportLowerSeparationLayers,1
;   supportType,0
;   supportGridSpacing,4
;   maxOverhangAngle,45
;   supportAngles,0
;   temperatureName,Primary Extruder,Heated Bed
;   temperatureNumber,0,0
;   temperatureSetpointCount,1,1
;   temperatureSetpointLayers,1,1
;   temperatureSetpointTemperatures,230,60
;   temperatureStabilizeAtStartup,1,1
;   temperatureHeatedBed,0,1
;   temperatureRelayBetweenLayers,0,0
;   temperatureRelayBetweenLoops,0,0
;   fanLayers,1,2
;   fanSpeeds,0,100
;   blipFanToFullPower,0
;   adjustSpeedForCooling,1
;   minSpeedLayerTime,15
;   minCoolingSpeedSlowdown,20
;   increaseFanForCooling,0
;   minFanLayerTime,45
;   maxCoolingFanSpeed,100
;   increaseFanForBridging,0
;   bridgingFanSpeed,100
;   use5D,1
;   relativeEdistances,0
;   allowEaxisZeroing,1
;   independentExtruderAxes,0
;   includeM10123,0
;   stickySupport,1
;   applyToolheadOffsets,0
;   gcodeXoffset,0
;   gcodeYoffset,0
;   gcodeZoffset,0
;   overrideMachineDefinition,1
;   machineTypeOverride,0
;   strokeXoverride,200
;   strokeYoverride,200
;   strokeZoverride,180
;   originOffsetXoverride,0
;   originOffsetYoverride,0
;   originOffsetZoverride,0
;   homeXdirOverride,-1
;   homeYdirOverride,-1
;   homeZdirOverride,-1
;   flipXoverride,1
;   flipYoverride,-1
;   flipZoverride,1
;   toolheadOffsets,0,0|0,0|0,0|0,0|0,0|0,0
;   overrideFirmwareConfiguration,1
;   firmwareTypeOverride,RepRap (Marlin/Repetier/Sprinter)
;   GPXconfigOverride,r2
;   baudRateOverride,115200
;   overridePrinterModels,1
;   printerModelsOverride
;   startingGcode,G28 ; home all axes
;   layerChangeGcode,
;   retractionGcode,
;   toolChangeGcode,
;   endingGcode,G28 X0 ; home X-axis,M104 S0 ; turn off extruder,M140 S0 ; turn off bed,M84 ; disable motors
;   createX3G,0
;   celebration,0
;   celebrationSong,Random Song
;   createMB5G,0
;   postProcessing,
;   defaultSpeed,3600
;   outlineUnderspeed,0.5
;   solidInfillUnderspeed,0.8
;   supportUnderspeed,0.8
;   rapidXYspeed,4800
;   rapidZspeed,1000
;   minBridgingArea,50
;   bridgingExtraInflation,0
;   bridgingExtrusionMultiplier,1
;   bridgingSpeedMultiplier,1
;   filamentDiameter,1.75
;   filamentPricePerKg,46
;   filamentDensity,1.25
;   useMinPrintHeight,0
;   minPrintHeight,0
;   useMaxPrintHeight,0
;   maxPrintHeight,0
;   useDiaphragm,0
;   diaphragmLayerInterval,20
;   robustSlicing,1
;   mergeAllIntoSolid,0
;   onlyRetractWhenCrossingOutline,1
;   retractBetweenLayers,1
;   useRetractionMinTravel,0
;   retractionMinTravel,3
;   retractWhileWiping,0
;   onlyWipeOutlines,1
;   avoidCrossingOutline,0
;   maxMovementDetourFactor,3
;   toolChangeRetractionDistance,12
;   toolChangeExtraRestartDistance,-0.5
;   toolChangeRetractionSpeed,600
;   allowThinWallGapFill,1
;   thinWallAllowedOverlapPercentage,10
;   horizontalSizeCompensation,0
G90
M82
M106 S0
M140 S60
M190 S60
M104 S230 T0
M109 S230 T0
G28 ; home all axes
G92 E0
G1 E-1.0000 F1800
G1 Z0.180 F1000
; layer 1, Z = 0.18
T0
; tool H0.200 W0.400
; skirt
G1 X43.331 Y22.348 F4800
G1 E0.0000 F540
G92 E0
G1 X45.843 Y19.836 E0.1122 F1800
G1 X46.064 Y19.745 E0.1198
G1 X153.936 Y19.745 E3.5282
G1 X154.157 Y19.836 E3.5358
G1 X156.669 Y22.348 E3.6480
G1 X156.760 Y22.569 E3.6556
G1 X156.760 Y177.431 E8.5488
G1 X156.669 Y177.652 E8.5563
G1 X154.157 Y180.164 E8.6686
G1 X153.936 Y180.255 E8.6761
G1 X46.064 Y180.255 E12.0846
G1 X45.843 Y180.164 E12.0921
G1 X43.331 Y177.652 E12.2044
G1 X43.240 Y177.431 E12.2119
G1 X43.240 Y22.569 E17.1051
G1 X43.331 Y22.348 E17.1126
G1 X43.670 Y22.575 F4800
G92 E0
G1 X46.070 Y20.175 E0.1072 F1800
G1 X46.143 Y20.145 E0.1097
G1 X153.857 Y20.145 E3.5132
G1 X153.930 Y20.175 E3.5157
G1 X156.330 Y22.575 E3.6229
G1 X156.360 Y22.648 E3.6254
G1 X156.360 Y177.352 E8.5136
G1 X156.330 Y177.425 E8.5161
G1 X153.930 Y179.825 E8.6233
G1 X153.857 Y179.855 E8.6258
G1 X46.143 Y179.855 E12.0293
G1 X46.070 Y179.825 E12.0318
G1 X43.670 Y177.425 E12.1390
G1 X43.640 Y177.352 E12.1415
G1 X43.640 Y22.648 E17.0297
G1 X43.670 Y22.575 E17.0322
G92 E0
G1 E-1.0000 F1800
; outer perimeter
G1 X48.040 Y24.545 F4800
G1 E0.0000 F1800
G92 E0
G1 X151.960 Y24.545 E3.2836 F900
G1 X151.960 Y175.455 E8.0519
G1 X48.040 Y175.455 E11.3355
G1 X48.040 Y24.545 E16.1038
; inner perimeter
G1 X48.440 Y24.945 F4800
G92 E0
G1 X151.560 Y24.945 E3.2583 F1350
G1 X151.560 Y175.055 E8.0013
G1 X48.440 Y175.055 E11.2596
G1 X48.440 Y24.945 E16.0027
G92 E0
G1 E-1.0000 F1800
G1 X77.790 Y151.242 F4800
G1 E0.0000 F1800
G92 E0
G1 X80.246 Y151.242 E0.0776 F1350
G1 X80.130 Y151.583 E0.0890
G1 X77.790 Y151.583 E0.1629
G1 X77.790 Y151.242 E0.1737
G92 E0
G1 E-1.0000 F1800
G1 X87.188 Y161.278 F4800
G1 E0.0000 F1800
G92 E0
G1 X89.624 Y161.278 E0.0770 F1350
G1 X89.624 Y161.620 E0.0878
G1 X87.188 Y161.620 E0.1647
G1 X87.188 Y161.278 E0.1755
G92 E0
G1 E-1.0000 F1800
G1 X94.684 Y160.930 F4800
G1 E0.0000 F1800
G92 E0
G1 X94.917 Y160.712 E0.0101 F1350
G1 X95.134 Y160.449 E0.0209
G1 X95.242 Y160.285 E0.0271
G1 X95.338 Y160.104 E0.0336
G1 X95.447 Y159.809 E0.0435
G1 X95.710 Y159.856 E0.0519
G1 X95.710 Y162.229 E0.1269
G1 X94.684 Y160.930 E0.1792
G92 E0
G1 E-1.0000 F1800
G1 X101.162 Y149.627 F4800
G1 E0.0000 F1800
G92 E0
G1 X100.479 Y149.033 E0.0286 F1350
G1 X101.051 Y149.033 E0.0466
G1 X101.162 Y149.627 E0.0657
G92 E0
G1 E-1.0000 F1800
G1 X106.205 Y149.991 F4800
G1 E0.0000 F1800
G92 E0
G1 X106.378 Y149.787 E0.0084 F1350
G1 X106.538 Y149.527 E0.0181
G1 X106.653 Y149.248 E0.0276
G1 X106.712 Y148.999 E0.0357
G1 X108.927 Y148.999 E0.1057
G1 X107.086 Y152.343 E0.2264
G1 X106.831 Y152.255 E0.2349
G1 X106.889 Y151.906 E0.2461
G1 X106.902 Y151.645 E0.2543
G1 X106.879 Y151.297 E0.2653
G1 X106.806 Y150.957 E0.2763
G1 X106.681 Y150.636 E0.2872
G1 X106.504 Y150.339 E0.2981
G1 X106.205 Y149.991 E0.3126
G92 E0
G1 E-1.0000 F1800
G1 X113.642 Y161.278 F4800
G1 E0.0000 F1800
G92 E0
G1 X116.078 Y161.278 E0.0770 F1350
G1 X116.078 Y161.620 E0.0878
G1 X113.642 Y161.620 E0.1647
G1 X113.642 Y161.278 E0.1755
G92 E0
G1 E-1.0000 F1800
G1 X121.137 Y160.930 F4800
G1 E0.0000 F1800
G92 E0
G1 X121.379 Y160.705 E0.0104 F1350
G1 X121.679 Y160.314 E0.0260
G1 X121.791 Y160.105 E0.0335
G1 X121.900 Y159.809 E0.0435
G1 X122.164 Y159.856 E0.0519
G1 X122.164 Y162.229 E0.1269
G1 X121.137 Y160.930 E0.1792
G92 E0
G1 E-1.0000 F1800
; outer perimeter
; inner perimeter
G1 X104.513 Y156.685 F4800
G1 E0.0000 F1800
G92 E0
G1 X104.513 Y163.981 E0.2305 F1350
G1 X107.245 Y163.981 E0.3168
G1 X107.245 Y161.278 E0.4022
G1 X108.125 Y161.278 E0.4300
G1 X108.125 Y163.981 E0.5154
G1 X118.799 Y163.981 E0.8527
G1 X118.799 Y162.198 E0.9090
G1 X120.149 Y163.981 E0.9796
G1 X124.682 Y163.981 E1.1229
G1 X125.326 Y163.957 E1.1432
G1 X125.954 Y163.884 E1.1632
G1 X126.285 Y163.814 E1.1739
G1 X126.609 Y163.710 E1.1846
G1 X126.919 Y163.572 E1.1954
G1 X127.217 Y163.400 E1.2063
G1 X127.549 Y163.156 E1.2192
G1 X127.852 Y162.864 E1.2326
G1 X128.121 Y162.529 E1.2461
G1 X128.358 Y162.152 E1.2602
G1 X128.553 Y161.735 E1.2748
G1 X128.694 Y161.290 E1.2895
G1 X128.777 Y160.823 E1.3045
G1 X128.804 Y160.339 E1.3198
G1 X128.779 Y159.846 E1.3354
G1 X128.702 Y159.378 E1.3504
G1 X128.571 Y158.934 E1.3650
G1 X128.387 Y158.521 E1.3793
G1 X128.157 Y158.146 E1.3932
G1 X127.888 Y157.810 E1.4068
G1 X127.580 Y157.514 E1.4203
G1 X127.237 Y157.260 E1.4338
G1 X126.928 Y157.084 E1.4450
G1 X126.610 Y156.944 E1.4560
G1 X126.280 Y156.840 E1.4669
G1 X125.945 Y156.772 E1.4777
G1 X125.314 Y156.706 E1.4978
G1 X124.661 Y156.685 E1.5184
G1 X122.164 Y156.685 E1.5973
G1 X122.164 Y158.127 E1.6429
G1 X121.916 Y158.184 E1.6509
G1 X121.748 Y157.840 E1.6630
G1 X121.600 Y157.621 E1.6714
G1 X121.432 Y157.427 E1.6795
G1 X121.242 Y157.254 E1.6876
G1 X121.018 Y157.094 E1.6963
G1 X120.600 Y156.889 E1.7110
G1 X120.353 Y156.809 E1.7192
G1 X120.112 Y156.756 E1.7270
G1 X119.649 Y156.702 E1.7417
G1 X119.138 Y156.685 E1.7579
G1 X108.125 Y156.685 E2.1059
G1 X108.125 Y158.917 E2.1764
G1 X107.245 Y158.917 E2.2042
G1 X107.245 Y156.685 E2.2748
G1 X104.513 Y156.685 E2.3611
; outer perimeter
G1 X104.913 Y157.085 F4800
G92 E0
G1 X104.913 Y163.581 E0.2053 F900
G1 X106.845 Y163.581 E0.2663
G1 X106.845 Y160.878 E0.3517
G1 X108.525 Y160.878 E0.4047
G1 X108.525 Y163.581 E0.4901
G1 X110.456 Y163.581 E0.5511
G1 X110.456 Y157.085 E0.7564
G1 X108.525 Y157.085 E0.8174
G1 X108.525 Y159.317 E0.8880
G1 X106.845 Y159.317 E0.9411
G1 X106.845 Y157.085 E1.0116
G1 X104.913 Y157.085 E1.0726
G92 E0
G1 E-1.0000 F1800
; inner perimeter
; outer perimeter
G1 X102.458 Y147.217 F4800
G1 E0.0000 F1800
G92 E0
G1 X102.264 Y147.326 E0.0070 F900
G1 X101.953 Y147.571 E0.0195
G1 X101.813 Y147.722 E0.0260
G1 X101.610 Y148.029 E0.0377
G1 X101.533 Y148.205 E0.0437
G1 X101.478 Y148.389 E0.0498
G1 X101.437 Y148.749 E0.0612
G1 X101.452 Y149.003 E0.0693
G1 X101.497 Y149.242 E0.0770
G1 X101.573 Y149.474 E0.0847
G1 X101.736 Y149.780 E0.0956
G1 X101.822 Y149.892 E0.1001
G1 X102.014 Y150.084 E0.1087
G1 X102.202 Y150.222 E0.1160
G1 X102.003 Y150.343 E0.1234
G1 X101.787 Y150.514 E0.1321
G1 X101.537 Y150.793 E0.1440
G1 X101.410 Y151.020 E0.1522
G1 X101.356 Y151.159 E0.1569
G1 X101.295 Y151.417 E0.1653
G1 X101.274 Y151.701 E0.1743
G1 X101.312 Y152.094 E0.1867
G1 X101.427 Y152.467 E0.1991
G1 X101.518 Y152.652 E0.2056
G1 X101.630 Y152.820 E0.2120
G1 X101.762 Y152.976 E0.2184
G1 X101.916 Y153.118 E0.2250
G1 X102.093 Y153.246 E0.2319
G1 X102.290 Y153.359 E0.2391
G1 X102.507 Y153.456 E0.2466
G1 X102.744 Y153.538 E0.2545
G1 X103.004 Y153.605 E0.2630
G1 X103.569 Y153.678 E0.2810
G1 X104.175 Y153.678 E0.3002
G1 X104.717 Y153.605 E0.3175
G1 X105.196 Y153.459 E0.3333
G1 X105.604 Y153.252 E0.3477
G1 X105.789 Y153.120 E0.3549
G1 X105.951 Y152.977 E0.3617
G1 X106.094 Y152.819 E0.3685
G1 X106.217 Y152.649 E0.3751
G1 X106.319 Y152.465 E0.3817
G1 X106.399 Y152.271 E0.3884
G1 X106.456 Y152.070 E0.3950
G1 X106.490 Y151.863 E0.4016
G1 X106.502 Y151.648 E0.4084
G1 X106.482 Y151.352 E0.4178
G1 X106.422 Y151.073 E0.4268
G1 X106.321 Y150.813 E0.4356
G1 X106.178 Y150.574 E0.4444
G1 X105.993 Y150.358 E0.4534
G1 X105.766 Y150.167 E0.4628
G1 X105.535 Y150.022 E0.4714
G1 X105.695 Y149.914 E0.4775
G1 X105.892 Y149.742 E0.4858
G1 X106.054 Y149.552 E0.4937
G1 X106.180 Y149.345 E0.5013
G1 X106.271 Y149.125 E0.5088
G1 X106.326 Y148.893 E0.5164
G1 X106.344 Y148.647 E0.5242
G1 X106.302 Y148.284 E0.5357
G1 X106.174 Y147.940 E0.5473
G1 X105.970 Y147.641 E0.5588
G1 X105.831 Y147.501 E0.5650
G1 X105.530 Y147.284 E0.5767
G1 X105.342 Y147.187 E0.5834
G1 X104.933 Y147.037 E0.5972
G1 X104.451 Y146.941 E0.6127
G1 X104.177 Y146.917 E0.6214
G1 X103.622 Y146.918 E0.6389
G1 X103.116 Y146.988 E0.6551
G1 X102.872 Y147.053 E0.6630
G1 X102.458 Y147.217 E0.6771
; inner perimeter
G1 X97.754 Y146.837 F4800
G92 E0
G1 X97.405 Y147.008 E0.0123 F1350
G1 X97.088 Y147.212 E0.0242
G1 X96.801 Y147.451 E0.0360
G1 X96.551 Y147.720 E0.0476
G1 X96.329 Y148.023 E0.0594
G1 X96.143 Y148.344 E0.0712
G1 X95.991 Y148.684 E0.0830
G1 X95.873 Y149.041 E0.0948
G1 X95.786 Y149.411 E0.1068
G1 X95.725 Y149.798 E0.1192
G1 X95.690 Y150.203 E0.1321
G1 X95.678 Y150.628 E0.1455
G1 X95.691 Y151.040 E0.1585
G1 X95.730 Y151.431 E0.1709
G1 X95.797 Y151.801 E0.1828
G1 X95.893 Y152.147 E0.1942
G1 X96.018 Y152.469 E0.2051
G1 X96.171 Y152.767 E0.2157
G1 X96.353 Y153.041 E0.2260
G1 X96.563 Y153.283 E0.2362
G1 X96.767 Y153.471 E0.2449
G1 X96.993 Y153.635 E0.2537
G1 X97.236 Y153.772 E0.2626
G1 X97.496 Y153.883 E0.2715
G1 X97.769 Y153.968 E0.2805
G1 X98.054 Y154.027 E0.2897
G1 X98.360 Y154.063 E0.2995
G1 X98.949 Y154.062 E0.3181
G1 X99.256 Y154.026 E0.3279
G1 X99.542 Y153.966 E0.3371
G1 X99.816 Y153.881 E0.3461
G1 X100.077 Y153.768 E0.3551
G1 X100.323 Y153.629 E0.3640
G1 X100.551 Y153.464 E0.3730
G1 X100.758 Y153.275 E0.3818
G1 X100.942 Y153.068 E0.3906
G1 X101.137 Y152.800 E0.4010
G1 X101.310 Y153.061 E0.4109
G1 X101.473 Y153.253 E0.4189
G1 X101.662 Y153.428 E0.4270
G1 X101.876 Y153.583 E0.4354
G1 X102.109 Y153.716 E0.4439
G1 X102.359 Y153.828 E0.4525
G1 X102.628 Y153.921 E0.4615
G1 X102.929 Y153.998 E0.4713
G1 X103.543 Y154.078 E0.4909
G1 X104.202 Y154.078 E0.5117
G1 X104.803 Y153.997 E0.5309
G1 X105.346 Y153.831 E0.5488
G1 X105.812 Y153.595 E0.5653
G1 X106.038 Y153.434 E0.5741
G1 X106.320 Y153.184 E0.5860
G1 X106.531 Y153.353 E0.5945
G1 X106.205 Y153.944 E0.6158
G1 X109.280 Y153.944 E0.7130
G1 X111.856 Y149.108 E0.8861
G1 X112.099 Y149.169 E0.8940
G1 X112.099 Y153.944 E1.0449
G1 X114.746 Y153.944 E1.1285
G1 X114.746 Y148.145 E1.3117
G1 X112.123 Y148.145 E1.3946
G1 X112.123 Y146.648 E1.4419
G1 X106.437 Y146.648 E1.6216
G1 X106.437 Y147.545 E1.6499
G1 X106.092 Y147.196 E1.6655
G1 X105.740 Y146.942 E1.6792
G1 X105.503 Y146.820 E1.6876
G1 X105.041 Y146.651 E1.7031
G1 X104.508 Y146.545 E1.7203
G1 X104.194 Y146.517 E1.7302
G1 X103.594 Y146.518 E1.7492
G1 X103.037 Y146.595 E1.7670
G1 X102.746 Y146.672 E1.7765
G1 X102.285 Y146.856 E1.7922
G1 X102.041 Y146.993 E1.8010
G1 X101.682 Y147.276 E1.8155
G1 X101.497 Y147.474 E1.8240
G1 X101.028 Y148.184 E1.8509
G1 X101.028 Y146.712 E1.8974
G1 X99.766 Y146.545 E1.9377
G1 X99.413 Y146.534 E1.9488
G1 X98.966 Y146.552 E1.9630
G1 X98.538 Y146.607 E1.9766
G1 X98.133 Y146.702 E1.9897
G1 X97.754 Y146.837 E2.0025
; outer perimeter
G1 X97.909 Y147.206 F4800
G92 E0
G1 X97.602 Y147.357 E0.0108 F900
G1 X97.324 Y147.536 E0.0212
G1 X97.076 Y147.742 E0.0314
G1 X96.860 Y147.975 E0.0415
G1 X96.665 Y148.241 E0.0519
G1 X96.500 Y148.526 E0.0623
G1 X96.364 Y148.829 E0.0728
G1 X96.258 Y149.150 E0.0835
G1 X96.179 Y149.488 E0.0945
G1 X96.123 Y149.847 E0.1059
G1 X96.089 Y150.226 E0.1180
G1 X96.078 Y150.627 E0.1306
G1 X96.090 Y151.014 E0.1429
G1 X96.126 Y151.375 E0.1543
G1 X96.187 Y151.711 E0.1651
G1 X96.273 Y152.021 E0.1753
G1 X96.383 Y152.305 E0.1849
G1 X96.516 Y152.564 E0.1941
G1 X96.672 Y152.798 E0.2030
G1 X96.851 Y153.004 E0.2116
G1 X97.021 Y153.161 E0.2189
G1 X97.209 Y153.297 E0.2263
G1 X97.414 Y153.413 E0.2337
G1 X97.634 Y153.507 E0.2413
